images/aura-logo.svg

<svg fill="none" height="512" viewBox="0 0 512 512" width="512" xmlns="http://www.w3.org/2000/svg" xmlns:xlink="http://www.w3.org/1999/xlink"><clipPath id="a"><path d="m85 77h341v403h-341z"/></clipPath><rect fill="#ffa800" height="512" rx="113" width="512"/><g clip-path="url(#a)"><ellipse cx="257.902" cy="228.125" fill="#000" rx="132.077" ry="139.131"/><g fill="#fff"><path d="m426 230.343c0-84.686-66.988-153.343-170.506-153.343-103.517 0-170.494 68.657-170.494 153.343 0 84.687 66.977 153.344 170.494 153.344 103.518 0 170.495-68.657 170.495-153.344zm-210.355 35.893c-11.085-15.972-22.25-31.899-33.187-47.963-1.956-2.867-3.206-6.28-4.446-9.568-6.389-16.871-12.676-33.788-18.998-50.682-.159-.421-.295-.864-.534-1.558 17.145-6.667 34.256-13.311 51.514-20.023 1.979 5.313 3.9 10.455 5.81 15.609 5.264 14.209 10.71 28.361 15.69 42.684 1.66 4.79 2.194 9.977 3.138 15.006 3.615 19.158 7.185 38.316 10.812 57.678-7.458 3.265-14.769 6.474-22.193 9.727-2.581-3.709-5.105-7.303-7.606-10.91zm40.725 80.785c-16.941.034-29.89-12.401-29.515-29.932.352-16.382 13.029-28.703 30.004-28.612 16.985.091 29.423 12.628 29.367 29.602-.046 16.973-12.495 29.021-29.868 28.942zm101.369-135.38c-4.946 13.72-14.849 22.616-27.992 28.202-8.447 3.595-17.315 5.586-26.388 6.735-4.332.546-4.343.432-5.434 4.618-1.717 6.61-3.445 13.209-5.173 19.807-.125.5-.307.99-.478 1.547-10.335-1.831-20.59-3.629-30.822-5.529-.5-.091-1.228-.978-1.228-1.502-.023-9.271-.068-18.532.148-27.792.193-8.305 4.354-14.005 12.21-16.792 6.174-2.184 12.404-4.186 18.612-6.246 7.003-2.332 11.381-7.076 13.029-14.254.955-4.153 1.91-8.317 2.49-12.537.978-7.224-2.478-13.163-9.038-16.382-5.071-2.492-10.517-3.163-16.031-3.402-10.346-.466-20.351 1.65-30.311 4.084-.375.091-.762.182-1.148.251-.125.022-.262-.023-.66-.057-1.705-11.934-3.399-23.811-5.161-36.121 4.559-1.24 9.038-2.662 13.62-3.651 14.348-3.118 28.878-4.005 43.454-2.333 14.712 1.695 28.4 6.326 40.008 15.905 11.836 9.772 18.362 22.389 19.612 37.701.774 9.477-.09 18.771-3.331 27.748z"/><path d="m373.576 441.798c20.432 0 36.996-16.915 36.996-37.781s-16.564-37.782-36.996-37.782-36.996 16.916-36.996 37.782 16.564 37.781 36.996 37.781z"/><path d="m310.226 480c15.315 0 27.73-12.678 27.73-28.316 0-15.639-12.415-28.316-27.73-28.316s-27.73 12.677-27.73 28.316c0 15.638 12.415 28.316 27.73 28.316z"/></g></g></svg>

<svg width="512" height="512" viewBox="0 0 512 512" fill="none" xmlns="http://www.w3.org/2000/svg">
<rect width="512" height="512" rx="113" fill="#FFA800"/>
<g clip-path="url(#clip0_2543_1561)">
<ellipse cx="257.902" cy="228.125" rx="132.077" ry="139.131" fill="black"/>
<path d="M426 230.343C426 145.657 359.012 77 255.494 77C151.977 77 85 145.657 85 230.343C85 315.03 151.977 383.687 255.494 383.687C359.012 383.687 425.989 315.03 425.989 230.343H426ZM215.645 266.236C204.56 250.264 193.395 234.337 182.458 218.273C180.502 215.406 179.252 211.993 178.012 208.705C171.623 191.834 165.336 174.917 159.014 158.023C158.855 157.602 158.719 157.159 158.48 156.465C175.625 149.798 192.736 143.154 209.994 136.442C211.973 141.755 213.894 146.897 215.804 152.051C221.068 166.26 226.514 180.412 231.494 194.735C233.154 199.525 233.688 204.712 234.632 209.741C238.247 228.899 241.817 248.057 245.444 267.419C237.986 270.684 230.675 273.893 223.251 277.146C220.67 273.437 218.146 269.843 215.645 266.236ZM256.37 347.021C239.429 347.055 226.48 334.62 226.855 317.089C227.207 300.707 239.884 288.386 256.859 288.477C273.844 288.568 286.282 301.105 286.226 318.079C286.18 335.052 273.731 347.1 256.358 347.021H256.37ZM357.739 211.641C352.793 225.361 342.89 234.257 329.747 239.843C321.3 243.438 312.432 245.429 303.359 246.578C299.027 247.124 299.016 247.01 297.925 251.196C296.208 257.806 294.48 264.405 292.752 271.003C292.627 271.503 292.445 271.993 292.274 272.55C281.939 270.719 271.684 268.921 261.452 267.021C260.952 266.93 260.224 266.043 260.224 265.519C260.201 256.248 260.156 246.987 260.372 237.727C260.565 229.422 264.726 223.722 272.582 220.935C278.756 218.751 284.986 216.749 291.194 214.689C298.197 212.357 302.575 207.613 304.223 200.435C305.178 196.282 306.133 192.118 306.713 187.898C307.691 180.674 304.235 174.735 297.675 171.516C292.604 169.024 287.158 168.353 281.644 168.114C271.298 167.648 261.293 169.764 251.333 172.198C250.958 172.289 250.571 172.38 250.185 172.449C250.06 172.471 249.923 172.426 249.525 172.392C247.82 160.458 246.126 148.581 244.364 136.271C248.923 135.031 253.402 133.609 257.984 132.62C272.332 129.502 286.862 128.615 301.438 130.287C316.15 131.982 329.838 136.613 341.446 146.192C353.282 155.964 359.808 168.581 361.058 183.893C361.832 193.37 360.968 202.664 357.727 211.641H357.739Z" fill="white"/>
<path d="M373.576 441.798C394.008 441.798 410.572 424.883 410.572 404.017C410.572 383.151 394.008 366.235 373.576 366.235C353.144 366.235 336.58 383.151 336.58 404.017C336.58 424.883 353.144 441.798 373.576 441.798Z" fill="white"/>
<path d="M310.226 480C325.541 480 337.956 467.322 337.956 451.684C337.956 436.045 325.541 423.368 310.226 423.368C294.911 423.368 282.496 436.045 282.496 451.684C282.496 467.322 294.911 480 310.226 480Z" fill="white"/>
</g>
<defs>
<clipPath id="clip0_2543_1561">
<rect width="341" height="403" fill="white" transform="translate(85 77)"/>
</clipPath>
</defs>
</svg>
